icons/flight-takeoff-fill.svg

<svg xmlns="http://www.w3.org/2000/svg" width="24" height="24" fill="none"><g clip-path="url(#a)"><g><path fill="#121212" d="M10.4779 11.632L5.96794 4.55999L7.89894 4.04199L14.8499 10.462L20.1119 9.05199C20.4962 8.94909 20.9057 9.00306 21.2502 9.20204C21.5947 9.40101 21.846 9.72869 21.9489 10.113C22.0518 10.4973 21.9979 10.9067 21.7989 11.2512C21.5999 11.5957 21.2722 11.8471 20.8879 11.95L5.91594 15.96L5.13994 13.062L5.38094 12.997L7.84794 15.442L5.22194 16.146C5.00661 16.2037 4.77815 16.1879 4.57288 16.1009C4.3676 16.0139 4.19727 15.8608 4.08894 15.666L1.46594 10.94L2.91494 10.552L5.38094 12.997L10.4779 11.631V11.632ZM3.99994 19H19.9999V21H3.99994V19Z"/></g></g><defs><clipPath id="a"><rect width="24" height="24" fill="white"/></clipPath></defs></svg>

<svg width="24" height="24" fill="none" xmlns="http://www.w3.org/2000/svg"><g clip-path="url(#a)"><path d="M10.478 11.632 5.968 4.56l1.93-.518 6.952 6.42 5.262-1.41a1.5 1.5 0 0 1 .776 2.898L5.916 15.96l-.776-2.898.24-.065 2.468 2.445-2.626.704a1 1 0 0 1-1.133-.48L1.466 10.94l1.449-.388 2.466 2.445 5.097-1.366v.001ZM4 19h16v2H4v-2Z" /></g><defs><clipPath id="a"><path fill="#fff" d="M0 0h24v24H0z"/></clipPath></defs></svg>
